component-icons/svg/effects.svg

<svg id="Layer_1" data-name="Layer 1" xmlns="http://www.w3.org/2000/svg" viewBox="0 0 24 24">
  <defs>
    <style>
      .cls-1 {
        fill: gray;
      }
    </style>
  </defs>
  <title>effects</title>
  <path class="cls-1" d="M11.41,9.41l4-4L14,4,11.41,6.59,8.83,4,7.41,5.41,10,8Zm-2,2L8,10,5.41,7.41,4,8.83l2.59,2.58L4,14l1.41,1.41L8,12.83Zm9.42-2.58L17.41,7.41l-4,4,4,4L18.83,14l-2.59-2.59Zm-8.83,6L7.41,17.41l1.42,1.42,2.58-2.59L14,18.83l1.41-1.42-4-4Z"/>
</svg>

<?xml version="1.0" encoding="utf-8"?>
<!-- Generator: Adobe Illustrator 24.2.3, SVG Export Plug-In . SVG Version: 6.00 Build 0)  -->
<svg version="1.1" id="Layer_1" xmlns="http://www.w3.org/2000/svg" xmlns:xlink="http://www.w3.org/1999/xlink" x="0px" y="0px"
	 width="24px" height="24px" viewBox="0 0 24 24" enable-background="new 0 0 24 24" xml:space="preserve">
<path d="M11.4,9.4l4-4L14,4l-2.6,2.6L8.8,4L7.4,5.4L10,8L11.4,9.4z M9.4,11.4L8,10L5.4,7.4L4,8.8l2.6,2.6L4,14l1.4,1.4L8,12.8
	L9.4,11.4z M18.8,8.8l-1.4-1.4l-4,4l4,4l1.4-1.4l-2.6-2.6L18.8,8.8z M10,14.8l-2.6,2.6l1.4,1.4l2.6-2.6l2.6,2.6l1.4-1.4l-4-4
	L10,14.8z"/>
</svg>
